src/icons/welcome.icon.svg

<svg width="24px" height="24px" viewBox="0 0 24 24" version="1.1" xmlns="http://www.w3.org/2000/svg" xmlns:xlink="http://www.w3.org/1999/xlink">
  <!-- Generator: Sketch 50.2 (55047) - http://www.bohemiancoding.com/sketch -->
  <desc>Created with Sketch.</desc>
  <defs></defs>
  <g id="Page-1" stroke="none" stroke-width="1" fill="none" fill-rule="evenodd">
    <g id="welcome.icon-(1)">
      <path d="M12.0000469,0 C5.38317189,0 0,5.38317189 0,12.0000469 C0,18.6168281 5.38317189,24 12.0000469,24 C18.6168281,24 24,18.6168281 24,12.0000469 C24,5.38317189 18.6168281,0 12.0000469,0 Z M12.0000445,22.5754745 C6.16869806,22.5754745 1.42452545,17.8313909 1.42452545,12.0000445 C1.42452545,6.16869806 6.16869806,1.42452545 12.0000445,1.42452545 C17.8313464,1.42452545 22.5754745,6.16865359 22.5754745,12.0000445 C22.5754745,17.8313019 17.8313019,22.5754745 12.0000445,22.5754745 Z M17.6566846,14.6073322 C17.8858469,14.325145 17.8858716,13.8777609 17.656731,13.5955796 C17.414143,13.2967148 17.0080934,13.2967214 16.7654086,13.59556 C14.1343277,16.8362845 9.8656055,16.8363024 7.23457299,13.5955796 C6.99200273,13.2967148 6.58594073,13.2967148 6.34325061,13.59556 C6.11415987,13.877738 6.11415987,14.3250971 6.34321875,14.6073148 C7.8584473,16.4736679 9.88813481,17.4857143 11.9999588,17.4857143 C14.1118616,17.4857143 16.1415059,16.4736829 17.6566846,14.6073322 Z M13.3621468,18.4579033 C13.3251285,18.249348 13.1881009,18.1275586 13.0560128,18.186117 C12.365176,18.4920695 11.6348241,18.4920695 10.9439873,18.186117 C10.8120892,18.1276443 10.6748717,18.249348 10.6378534,18.4579033 C10.600835,18.6664586 10.677857,18.8829874 10.809918,18.94146 C11.1991803,19.1138343 11.599597,19.2 11.9999594,19.2 C12.4003217,19.2 12.8007656,19.1138343 13.190055,18.94146 C13.3221431,18.8829874 13.3991651,18.6665015 13.3621468,18.4579033 Z M6.85709115,7.2 C4.96762533,7.2 3.42857143,8.74702978 3.42857143,10.6518424 C3.42857143,11.0189797 3.72236139,11.3142857 4.08201216,11.3142857 C4.44166289,11.3142857 4.73545286,11.0189797 4.73545286,10.6518424 C4.73545286,9.480456 5.68616829,8.52483466 6.85714286,8.52483466 C8.02809898,8.52483466 8.97883286,9.48048936 8.97883286,10.6518424 C8.97883286,11.0189797 9.27262282,11.3142857 9.63227355,11.3142857 C9.99192432,11.3142857 10.2857143,11.0189797 10.2857143,10.6518424 C10.2856049,8.74695699 8.74653885,7.2 6.85709115,7.2 Z M17.1428054,7.2 C15.2533396,7.2 13.7142857,8.74702978 13.7142857,10.6518424 C13.7142857,11.0189797 14.0080757,11.3142857 14.3677264,11.3142857 C14.7273772,11.3142857 15.0211671,11.0189797 15.0211671,10.6518424 C15.0211671,9.480456 15.9718826,8.52483466 17.1428571,8.52483466 C18.3138133,8.52483466 19.2645471,9.48048936 19.2645471,10.6518424 C19.2645471,11.0189797 19.5583371,11.3142857 19.9179878,11.3142857 C20.2776386,11.3142857 20.5714286,11.0189797 20.5714286,10.6518424 C20.5713192,8.74693954 19.0322874,7.2 17.1428054,7.2 Z" id="mask" fill="currentColor" fill-rule="nonzero"></path>
    </g>
  </g>
</svg>

<svg xmlns="http://www.w3.org/2000/svg" viewBox="0 0 24 24"><path d="M12 0C5.383 0 0 5.383 0 12s5.383 12 12 12 12-5.383 12-12S18.617 0 12 0zm0 22.575C6.169 22.575 1.425 17.831 1.425 12 1.425 6.169 6.169 1.425 12 1.425c5.831 0 10.575 4.744 10.575 10.575 0 5.831-4.744 10.575-10.575 10.575zm5.657-7.968a.83.83 0 000-1.011.555.555 0 00-.892 0c-2.63 3.24-6.9 3.24-9.53 0a.555.555 0 00-.892 0 .83.83 0 000 1.011c1.515 1.867 3.545 2.879 5.657 2.879s4.142-1.012 5.657-2.879zm-4.295 3.85c-.037-.208-.174-.33-.306-.27a2.545 2.545 0 01-2.112 0c-.132-.06-.27.062-.306.27-.037.21.04.426.172.484.39.173.79.259 1.19.259.4 0 .8-.086 1.19-.259.132-.058.21-.274.172-.483zM6.857 7.2c-1.89 0-3.428 1.547-3.428 3.452 0 .367.293.662.653.662.36 0 .653-.295.653-.662 0-1.172.951-2.127 2.122-2.127 1.171 0 2.122.955 2.122 2.127 0 .367.294.662.653.662.36 0 .654-.295.654-.662 0-1.905-1.54-3.452-3.429-3.452zm10.286 0c-1.89 0-3.429 1.547-3.429 3.452 0 .367.294.662.654.662.36 0 .653-.295.653-.662 0-1.172.95-2.127 2.122-2.127 1.17 0 2.122.955 2.122 2.127 0 .367.293.662.653.662.36 0 .653-.295.653-.662 0-1.905-1.539-3.452-3.428-3.452z" fill="currentColor"/></svg>
